!!!OTL: WER WEISS WORAUS DAS BRUENNLEIN QUILLT
!!!ARE: Europa, Mitteleuropa, Deutschland, Westfalen, Paderborn
!!!SCT: E2005
!!!YEM: Copyright 1995, estate of Helmut Schaffrath.
**kern
*ICvox
*Ivox
*M4/4
*k[b-]
*F:
{8f
8a
=1
4cc
4cc
4cc
8dd
8b-
=2
4a
4a
4a}
{4a
=3
4g
4a
8cc
8b-
4a
=4
2a
4g}
{8f
8a
=5
4cc
4cc
4cc
8dd
8b-
=6
4a
4a
4a}
{4a
=7
4g
4a
8cc
8b-
4a
=8
2a
4g}
{4f
=9
4.e
8g
4.b-
8g
=10
4f
4a
4cc}
{4a
=11
4.b-
8dd
4.dd
8b-
=12
2b-
4a}
{4f
=13
4.e
8g
4.b-
8g
=14
4f
4a
4cc}
{4a
=15
4.b-
8dd
4.dd
8b-
=16
2b-
4a}
==
!!!AGN: geistlich, Lob - Lied
!!!ONB: ESAC (Essen Associative Code) Database: ERK3
!!!AMT: simple quadruple
!!!AIN: vox
!!!EED: Helmut Schaffrath
!!!EEV: 1.0
*-
